assets/img/ticon13.svg

<svg width="48" height="48" viewBox="0 0 48 48" fill="none" xmlns="http://www.w3.org/2000/svg">
<circle cx="24" cy="24" r="24" fill="#FFC940"/>
<g clip-path="url(#clip0)">
<path d="M30.2634 19.2329H27.3408C27.0973 19.2329 26.8961 19.0271 26.8961 18.7779V15.7876C26.8961 15.3868 27.3726 15.1809 27.6585 15.4626L30.5811 18.4529C30.8564 18.7454 30.6552 19.2329 30.2634 19.2329ZM26.6631 25.8093L23.4123 29.1354L22.8087 29.753C22.3852 30.1863 21.6969 30.1863 21.2733 29.753L20.6592 29.1354L19.2296 27.6728C18.8484 27.2828 18.8484 26.6544 19.2296 26.2644C19.6109 25.8743 20.225 25.8743 20.6062 26.2644L21.8557 27.5428C21.951 27.6403 22.1099 27.6403 22.2052 27.5428L25.2866 24.4009C25.6678 24.0108 26.2819 24.0108 26.6631 24.4009C27.0443 24.7909 27.0443 25.4193 26.6631 25.8093ZM31.2164 17.3694L28.7068 14.8017C28.1985 14.2817 27.5208 14 26.8114 14H17.779C16.7942 14 16 14.8126 16 15.8202V32.1907C16 33.1983 16.7942 34.0108 17.779 34.0108H30.221C31.2058 34.0108 32 33.1983 32 32.1907V19.2979C32 18.572 31.7141 17.8787 31.2164 17.3694Z" fill="black"/>
</g>
<defs>
<clipPath id="clip0">
<rect width="16" height="20" fill="white" transform="translate(16 14)"/>
</clipPath>
</defs>
</svg>

<svg width="48" height="48" fill="none" xmlns="http://www.w3.org/2000/svg"><circle cx="24" cy="24" r="24" fill="#FFC940"/><g clip-path="url(#clip0)"><path d="M30.263 19.233h-2.922a.453.453 0 01-.445-.455v-2.99c0-.401.477-.607.762-.325l2.923 2.99c.275.292.074.78-.318.78zm-3.6 6.576l-3.25 3.326-.604.618a1.07 1.07 0 01-1.536 0l-.614-.618-1.43-1.462a1.01 1.01 0 010-1.409.956.956 0 011.377 0l1.25 1.279a.245.245 0 00.35 0l3.08-3.142a.956.956 0 011.377 0 1.01 1.01 0 010 1.408zm4.553-8.44l-2.51-2.567A2.638 2.638 0 0026.812 14H17.78c-.985 0-1.779.813-1.779 1.82v16.37c0 1.008.794 1.82 1.779 1.82h12.442c.985 0 1.779-.812 1.779-1.82V19.299c0-.726-.286-1.42-.784-1.929z" fill="#000"/></g><defs><clipPath id="clip0"><path fill="#fff" transform="translate(16 14)" d="M0 0h16v20H0z"/></clipPath></defs></svg>
